X: 1
T: Within A Mile Of Greenock
R: reel
M: 4/4
L: 1/8
K: Ddor
|:ADDC DDDC|ADDC F2 G2|AD (3DCC FFGA|cAGA F2 G2|
Ad (3dad AGFG|ADDC F2 G2|Adde dcAG|cAGA F2 D2:|
|:fedc AGFG|Ad (3dad AGFG|AD (3DCC F2 G2|Acfg (3aff gf|
dcde (3fdd cA|FA (3AdA cA (3AAA|dAGF GAFG|AGFA D2 D2:|

